app/images/dist/data-icon.svg

<svg width="40" height="40" viewBox="0 0 40 40" fill="none" xmlns="http://www.w3.org/2000/svg">
<path d="M18.332 7.49998H30.4987C32.3655 7.49998 33.299 7.49998 34.012 7.8633C34.6392 8.18286 35.1492 8.6928 35.4687 9.32001C35.832 10.033 35.832 10.9665 35.832 12.8333V15C35.832 16.5531 35.832 17.3296 35.5784 17.9423C35.24 18.759 34.591 19.408 33.7744 19.7463C33.1617 20 32.3852 20 30.832 20M21.6654 32.5H9.4987C7.63186 32.5 6.69843 32.5 5.9854 32.1366C5.35818 31.8171 4.84825 31.3071 4.52868 30.68C4.16536 29.967 4.16536 29.0335 4.16536 27.1666V25C4.16536 23.4468 4.16536 22.6703 4.4191 22.0576C4.75741 21.241 5.40633 20.592 6.22308 20.2536C6.83566 20 7.61223 20 9.16536 20M17.1654 24.1666H22.832C23.2987 24.1666 23.532 24.1666 23.7104 24.0758C23.8672 23.996 23.9947 23.8685 24.0745 23.7116C24.1654 23.5333 24.1654 23.3 24.1654 22.8333V17.1666C24.1654 16.7 24.1654 16.4666 24.0745 16.2883C23.9947 16.1315 23.8672 16.004 23.7104 15.9241C23.532 15.8333 23.2987 15.8333 22.832 15.8333H17.1654C16.6987 15.8333 16.4653 15.8333 16.287 15.9241C16.1302 16.004 16.0027 16.1315 15.9229 16.2883C15.832 16.4666 15.832 16.7 15.832 17.1666V22.8333C15.832 23.3 15.832 23.5333 15.9229 23.7116C16.0027 23.8685 16.1302 23.996 16.287 24.0758C16.4653 24.1666 16.6987 24.1666 17.1654 24.1666ZM29.6654 36.6666H35.332C35.7987 36.6666 36.032 36.6666 36.2104 36.5758C36.3672 36.496 36.4947 36.3685 36.5745 36.2116C36.6654 36.0333 36.6654 35.8 36.6654 35.3333V29.6666C36.6654 29.2 36.6654 28.9666 36.5745 28.7883C36.4947 28.6315 36.3672 28.504 36.2104 28.4241C36.032 28.3333 35.7987 28.3333 35.332 28.3333H29.6654C29.1987 28.3333 28.9654 28.3333 28.787 28.4241C28.6302 28.504 28.5027 28.6315 28.4229 28.7883C28.332 28.9666 28.332 29.2 28.332 29.6666V35.3333C28.332 35.8 28.332 36.0333 28.4229 36.2116C28.5027 36.3685 28.6302 36.496 28.787 36.5758C28.9654 36.6666 29.1987 36.6666 29.6654 36.6666ZM4.66536 11.6666H10.332C10.7987 11.6666 11.0321 11.6666 11.2104 11.5758C11.3672 11.4959 11.4946 11.3684 11.5745 11.2116C11.6654 11.0334 11.6654 10.8 11.6654 10.3333V4.66665C11.6654 4.19993 11.6654 3.96658 11.5745 3.78831C11.4946 3.63151 11.3672 3.50403 11.2104 3.42415C11.0321 3.33331 10.7987 3.33331 10.332 3.33331H4.66536C4.19865 3.33331 3.9653 3.33331 3.78703 3.42415C3.63023 3.50403 3.50275 3.63151 3.42286 3.78831C3.33203 3.96658 3.33203 4.19993 3.33203 4.66665V10.3333C3.33203 10.8 3.33203 11.0334 3.42286 11.2116C3.50275 11.3684 3.63023 11.4959 3.78703 11.5758C3.9653 11.6666 4.19865 11.6666 4.66536 11.6666Z" stroke="white" stroke-width="3" stroke-linecap="round" stroke-linejoin="round"/>
</svg>

<svg width="40" height="40" fill="none" xmlns="http://www.w3.org/2000/svg"><path d="M18.332 7.5h12.167c1.866 0 2.8 0 3.513.363.627.32 1.137.83 1.457 1.457.363.713.363 1.646.363 3.513V15c0 1.553 0 2.33-.254 2.942a3.334 3.334 0 0 1-1.804 1.804c-.612.254-1.389.254-2.942.254m-9.167 12.5H9.5c-1.867 0-2.8 0-3.514-.363A3.333 3.333 0 0 1 4.53 30.68c-.364-.713-.364-1.646-.364-3.513V25c0-1.553 0-2.33.254-2.942a3.334 3.334 0 0 1 1.804-1.804C6.836 20 7.613 20 9.165 20m8 4.167h5.667c.467 0 .7 0 .878-.091a.832.832 0 0 0 .364-.364c.091-.179.091-.412.091-.879v-5.666c0-.467 0-.7-.09-.879a.833.833 0 0 0-.365-.364c-.178-.09-.411-.09-.878-.09h-5.667c-.466 0-.7 0-.878.09a.833.833 0 0 0-.364.364c-.091.179-.091.412-.091.879v5.666c0 .467 0 .7.09.879.08.157.208.284.365.364.178.09.412.09.878.09Zm12.5 12.5h5.667c.467 0 .7 0 .878-.091a.832.832 0 0 0 .364-.364c.091-.179.091-.412.091-.879v-5.666c0-.467 0-.7-.09-.879a.833.833 0 0 0-.365-.364c-.178-.09-.411-.09-.878-.09h-5.667c-.466 0-.7 0-.878.09a.833.833 0 0 0-.364.364c-.091.179-.091.412-.091.879v5.666c0 .467 0 .7.09.879.08.156.208.284.365.364.178.09.412.09.878.09Zm-25-25h5.667c.467 0 .7 0 .878-.091a.833.833 0 0 0 .364-.364c.091-.179.091-.412.091-.879V4.667c0-.467 0-.7-.09-.879a.833.833 0 0 0-.365-.364c-.178-.09-.411-.09-.878-.09H4.665c-.466 0-.7 0-.878.09a.833.833 0 0 0-.364.364c-.091.179-.091.412-.091.879v5.666c0 .467 0 .7.09.879.08.156.208.284.365.364.178.09.412.09.878.09Z" stroke="#fff" stroke-width="3" stroke-linecap="round" stroke-linejoin="round"/></svg>
